www/assets/icons/lte_plus_mobiledata.svg

<svg width="24" height="24" viewBox="0 0 24 24" xmlns="http://www.w3.org/2000/svg" fill='currentColor'><path d="M2.5 14H5.5V16H0.5V8H2.5V14ZM4.5 10H6.5V16H8.5V10H10.5V8H4.5V10ZM11.5 16H16.5V14H13.5V13H16.5V11H13.5V10H16.5V8H11.5V16ZM23.5 11H21.5V9H19.5V11H17.5V13H19.5V15H21.5V13H23.5V11Z"/></svg>

<svg xmlns="http://www.w3.org/2000/svg" width="24" height="24" viewBox="0 0 24 24" fill='currentColor'><path d="M2.5 14h3v2h-5V8h2zm2-4h2v6h2v-6h2V8h-6zm7 6h5v-2h-3v-1h3v-2h-3v-1h3V8h-5zm12-5h-2V9h-2v2h-2v2h2v2h2v-2h2z"/></svg>
